X:1424
T:Högbo Gånglåt
S:Efter Tim Rued
Z:[[http://www.bluerose.karenlmyers.org/IncipitsGanglat11.html|Karen Myers (#2336)]]
Z:Upptecknad 12/2001
M:4/4
L:1/8
R:Gånglåt
O:Gästrikland
K:D
V:1
A2 |: d2 d>de2 f2 | d4 A2- AA/A/ | AB cd ef ge | d>c dA FA DA |
[B2e2] e>e[B2e2] fg | e4 B2- Bc/B/ | AB cd ef ge |1 a2 TcB/c/d2- dA :|
[2 a2 TcB/c/d2- dd |: Bg/g/ gBg2 f/e/d/e/ | fA fAf2 ed | cd ef gf ge |
d2 A/B/A/G/ FDD2 | Bg/g/ gBg2 f/e/d/e/ | fA fAf2 ed |
cd ef gb ge |1 c2 cB/c/d2- dA :|2 c2 cB/c/d2- d z |]
V:2
I:repbra 0
G2 |: F2 F>FG2 A2 | F4 F2- FF/F/ | EG AB cd eG | F>E FD DF A,F |
G2 G>GG2 AB | G4 G2- GA/G/ | CD EF cd eG |1 F2 ED/E/F2- FG :|
[2F2 ED/E/F2- FA |: GB/B/ BGB2 A/G/F/G/ | AF AFd2 cB | AB cd ed ec |
F2 F/G/F/E/ DA,A,2 | GB/B/ BGB2 A/G/F/G/ | AF AFd2 cB |
AB cd ed ec |1 A2 GG/A/F2- FF :|2 A2 GG/A/F2- F z |]
(:musicend:)

Ingår i kategorin [[!andrastämma]].
(:music:)
